flaticon/casino-gambling/dice-6.svg

<svg xmlns="http://www.w3.org/2000/svg" width="32" height="32" viewBox="0 0 24 24">
    <path d="M 23.777344 14.363281 C 23.054688 13.402344 22.335938 13.402344 20.574219 14.320312 L 17.132812 16.441406 C 16.652344 16.722656 15.570312 16.804688 14.570312 16.804688 C 14.769531 16.441406 14.691406 16.003906 14.328125 15.480469 C 14.066406 15.105469 13.730469 14.789062 13.34375 14.546875 L 16.011719 11.878906 C 16.171875 11.71875 16.171875 11.480469 16.011719 11.320312 L 11.488281 6.796875 C 11.328125 6.636719 11.085938 6.636719 10.925781 6.796875 L 6.402344 11.320312 C 6.246094 11.480469 6.246094 11.71875 6.402344 11.878906 L 8.054688 13.527344 C 7.898438 13.441406 7.746094 13.347656 7.605469 13.242188 C 6.160156 12.15625 3.902344 13.335938 2.800781 14.039062 L 2.800781 13.199219 L 0 13.199219 L 0 23.609375 L 2.800781 23.609375 L 2.800781 22.40625 L 8.003906 22.40625 C 8.804688 22.40625 9.648438 22.328125 10.445312 22.285156 L 15.652344 21.488281 C 15.851562 21.488281 16.050781 21.445312 16.210938 21.40625 C 16.691406 21.328125 17.132812 21.085938 17.53125 20.726562 L 23.574219 15.960938 C 24.054688 15.5625 24.136719 14.84375 23.777344 14.363281 Z M 7.246094 11.601562 L 11.207031 7.636719 L 15.171875 11.601562 L 12.582031 14.1875 C 12.222656 14.066406 11.839844 14 11.449219 14 L 9.886719 14 C 9.804688 14 9.71875 13.996094 9.636719 13.992188 Z M 2 22.808594 L 0.800781 22.808594 L 0.800781 14 L 2 14 Z M 23.09375 15.363281 L 17.011719 20.085938 L 16.972656 20.125 C 16.730469 20.40625 16.410156 20.566406 16.050781 20.605469 C 15.890625 20.644531 15.769531 20.644531 15.609375 20.644531 L 10.328125 21.445312 C 9.566406 21.566406 8.765625 21.605469 8.003906 21.605469 L 2.800781 21.605469 L 2.800781 15.003906 C 3.761719 14.320312 6.003906 13.039062 7.125 13.882812 C 7.804688 14.417969 8.679688 14.730469 9.574219 14.789062 C 9.679688 14.800781 9.78125 14.800781 9.886719 14.800781 L 11.449219 14.800781 C 12.367188 14.800781 13.207031 15.242188 13.730469 15.960938 C 13.890625 16.203125 13.929688 16.441406 13.890625 16.523438 C 13.769531 16.722656 13.289062 16.804688 12.769531 16.84375 C 12.625 16.84375 12.484375 16.84375 12.367188 16.84375 C 12.355469 16.84375 12.339844 16.84375 12.328125 16.84375 L 8.484375 16.84375 C 7.246094 16.84375 6.484375 17.445312 6.484375 18.445312 C 6.484375 18.683594 6.644531 18.84375 6.882812 18.84375 C 7.125 18.84375 7.285156 18.683594 7.285156 18.445312 C 7.285156 18.246094 7.285156 17.644531 8.484375 17.644531 L 12.289062 17.644531 C 12.3125 17.644531 12.339844 17.644531 12.367188 17.644531 C 12.476562 17.644531 12.617188 17.644531 12.808594 17.644531 C 12.847656 17.644531 12.929688 17.644531 13.007812 17.644531 C 14.890625 17.683594 16.652344 17.644531 17.570312 17.164062 L 21.015625 15.042969 C 22.695312 14.203125 22.855469 14.402344 23.175781 14.882812 C 23.253906 15.003906 23.253906 15.242188 23.09375 15.363281 Z M 23.09375 15.363281"/>
    <path d="M8.6875 11.320312C8.527344 11.480469 8.527344 11.71875 8.6875 11.878906 8.847656 12.039062 9.085938 12.039062 9.246094 11.878906 9.367188 11.71875 9.367188 11.480469 9.246094 11.320312 9.085938 11.160156 8.847656 11.160156 8.6875 11.320312zM11.488281 11.878906C11.648438 11.71875 11.648438 11.480469 11.488281 11.320312 11.328125 11.160156 11.085938 11.160156 10.925781 11.320312 10.765625 11.480469 10.765625 11.71875 10.925781 11.878906 11.085938 12.039062 11.328125 12.039062 11.488281 11.878906zM13.769531 11.878906C13.929688 11.71875 13.929688 11.480469 13.769531 11.320312 13.609375 11.160156 13.367188 11.160156 13.207031 11.320312 13.046875 11.480469 13.050781 11.71875 13.207031 11.878906 13.367188 12.039062 13.609375 12.039062 13.769531 11.878906zM15.210938 7.597656L21.613281 7.597656C21.855469 7.597656 22.015625 7.4375 22.015625 7.195312L22.015625.792969C22.015625.550781 21.855469.390625 21.613281.390625L15.210938.390625C14.96875.390625 14.808594.550781 14.808594.792969L14.808594 7.195312C14.808594 7.4375 14.96875 7.597656 15.210938 7.597656zM15.609375 1.191406L21.214844 1.191406 21.214844 6.796875 15.609375 6.796875zM15.609375 1.191406"/>
    <path d="M16.8125 1.992188C16.570312 1.992188 16.410156 2.152344 16.410156 2.394531 16.410156 2.632812 16.570312 2.792969 16.8125 2.792969 17.050781 2.792969 17.210938 2.632812 17.210938 2.394531 17.210938 2.152344 17.050781 1.992188 16.8125 1.992188zM20.011719 1.992188C19.773438 1.992188 19.613281 2.152344 19.613281 2.394531 19.613281 2.632812 19.773438 2.792969 20.011719 2.792969 20.253906 2.792969 20.414062 2.632812 20.414062 2.394531 20.414062 2.152344 20.253906 1.992188 20.011719 1.992188zM16.8125 5.195312C16.570312 5.195312 16.410156 5.355469 16.410156 5.59375 16.410156 5.835938 16.570312 5.996094 16.8125 5.996094 17.050781 5.996094 17.210938 5.835938 17.210938 5.59375 17.210938 5.355469 17.050781 5.195312 16.8125 5.195312zM18.414062 3.59375C18.171875 3.59375 18.011719 3.753906 18.011719 3.996094 18.011719 4.234375 18.171875 4.394531 18.414062 4.394531 18.652344 4.394531 18.8125 4.234375 18.8125 3.996094 18.8125 3.753906 18.652344 3.59375 18.414062 3.59375zM20.011719 5.195312C19.773438 5.195312 19.613281 5.355469 19.613281 5.59375 19.613281 5.835938 19.773438 5.996094 20.011719 5.996094 20.253906 5.996094 20.414062 5.835938 20.414062 5.59375 20.414062 5.355469 20.253906 5.195312 20.011719 5.195312zM20.011719 5.195312"/>
</svg>

<svg xmlns="http://www.w3.org/2000/svg" width="32" height="32" viewBox="0 0 24 24">
    <path d="M23.777 14.363c-.722-.96-1.441-.96-3.203-.043l-3.441 2.121c-.48.282-1.563.364-2.563.364.2-.364.121-.801-.242-1.325a3.398 3.398 0 0 0-.984-.933l2.668-2.668a.385.385 0 0 0 0-.559l-4.524-4.523a.39.39 0 0 0-.562 0L6.402 11.32a.391.391 0 0 0 0 .559l1.653 1.648a3.8 3.8 0 0 1-.45-.285c-1.445-1.086-3.703.094-4.804.797v-.84H0v10.41h2.8v-1.203h5.204c.8 0 1.644-.078 2.441-.12l5.207-.798c.2 0 .399-.043.559-.082.48-.078.922-.32 1.32-.68l6.043-4.765c.48-.399.563-1.117.203-1.598zm-16.53-2.761l3.96-3.965 3.965 3.965-2.59 2.585A3.551 3.551 0 0 0 11.449 14H9.887c-.082 0-.168-.004-.25-.008zM2 22.809H.8V14H2zm21.094-7.446l-6.082 4.723-.04.039a1.39 1.39 0 0 1-.921.48c-.16.04-.281.04-.442.04l-5.28.8c-.763.121-1.563.16-2.325.16H2.8v-6.601c.96-.684 3.203-1.965 4.324-1.121.68.535 1.555.847 2.45.906.105.012.206.012.312.012h1.562c.918 0 1.758.441 2.281 1.16.16.242.2.48.16.562-.12.2-.6.282-1.12.32H8.484c-1.238 0-2 .602-2 1.602 0 .239.16.399.399.399.242 0 .402-.16.402-.399 0-.199 0-.8 1.2-.8h4.523c1.883.039 3.644 0 4.562-.48l3.446-2.122c1.68-.84 1.84-.64 2.16-.16.078.12.078.36-.082.48zm0 0"/>
    <path d="M8.688 11.32a.385.385 0 0 0 0 .559c.16.16.398.16.558 0a.475.475 0 0 0 0-.559.385.385 0 0 0-.559 0zm0 0M11.488 11.879a.385.385 0 0 0 0-.559.39.39 0 0 0-.562 0 .385.385 0 0 0 0 .559c.16.16.402.16.562 0zm0 0M13.77 11.879a.385.385 0 0 0 0-.559.39.39 0 0 0-.563 0 .388.388 0 0 0 0 .559c.16.16.402.16.563 0zm0 0M15.21 7.598h6.403c.242 0 .403-.16.403-.403V.793c0-.242-.16-.402-.403-.402h-6.402c-.242 0-.402.16-.402.402v6.402c0 .242.16.403.402.403zm.4-6.407h5.605v5.606h-5.606zm0 0"/>
    <path d="M16.813 1.992c-.243 0-.403.16-.403.403 0 .238.16.398.402.398.239 0 .399-.16.399-.398 0-.243-.16-.403-.398-.403zm0 0M20.012 1.992c-.239 0-.399.16-.399.403 0 .238.16.398.399.398.242 0 .402-.16.402-.398 0-.243-.16-.403-.402-.403zm0 0M16.813 5.195c-.243 0-.403.16-.403.399 0 .242.16.402.402.402.239 0 .399-.16.399-.402 0-.239-.16-.399-.398-.399zm0 0M18.414 3.594c-.242 0-.402.16-.402.402 0 .238.16.399.402.399.238 0 .398-.16.398-.399 0-.242-.16-.402-.398-.402zm0 0M20.012 5.195c-.239 0-.399.16-.399.399 0 .242.16.402.399.402.242 0 .402-.16.402-.402 0-.239-.16-.399-.402-.399zm0 0"/>
</svg>
